src/images/cross-mark.svg

<svg width="39" height="39" viewBox="0 0 39 39" fill="none" xmlns="http://www.w3.org/2000/svg">
<path fill-rule="evenodd" clip-rule="evenodd" d="M28.4652 27.1967L20.6949 19.4263L28.4782 11.643L27.209 10.3738L19.4257 18.1571L11.6553 10.3868L10.3862 11.6559L18.1565 19.4263L10.3732 27.2096L11.6424 28.4788L19.4257 20.6955L27.1961 28.4658L28.4652 27.1967Z" fill="#A60000"/>
</svg>

<svg width="39" height="39" fill="none" xmlns="http://www.w3.org/2000/svg"><path fill-rule="evenodd" clip-rule="evenodd" d="M28.465 27.197l-7.77-7.77 7.783-7.784-1.269-1.27-7.783 7.784-7.77-7.77-1.27 1.269 7.77 7.77-7.783 7.784 1.27 1.269 7.783-7.784 7.77 7.77 1.27-1.268z" fill="#A60000"/></svg>
